X: 21300
T: Kemp's
R: hornpipe
M: 4/4
K: Amajor
|:ed|cAce agfe|fedc B2ed|cAce agfe|d2c2 B2ed|
cAce agfe|fedc Bc(3dcB|cBAG Afed|c2A2 A2:|
|:ed|(3cBAaA gAfA|eac'a e2ed|(3cBAaA gAfA|edcA ~B2ed|
(3cBAaA gAfA|eac'a e2ed|cfed cefg|a2A2 A2:|

